!!!COM: Anonim
!!!CDT: [?]
!!!OTL@@LAT: Puer nobis nascitur
!!!TXO: Latin
!!!ODT: 
!!!GTL: Hymnbook A
!!!ARL: Opactwo św. Wojciecha, Staniątki 
!!!voices:	1
**kern
*staff1
*I"[Canto]
=1-
*oclefC1
*clefG2
*k[b-]
!*met(c|)
*M3/1
0cc
1cc
!!halfnote in mscrp
=2
1.b-
2a
1g
=3
0a
1a
=4
0a
1a
=5
0g
1cc
=6
0cc
1b-
=7
0cc
[1cc
=8
0.cc]
=9
0a
1a
=10
0a
1b-
=11
0a
1a
=12
0g
1g
=13
0f
1f
=14
0e
1e
=15
0f
[1f
=16
0.f]
==
*-
!!title: @{OTL}, @{GTL}: @{pag}, ed. @{ENC}
!!!pag: p. 19v
!!!GTL: Hymnbook A
!!!EFL: 
!!!YEM: Creative Commons CC/BY/NC/SA 4.0
!!!ENC: Marcin Konik
!!!END: 2015-03-07
!!!EED: Marcin Konik
!!!EEV: 
!!!ONB: Encoded in vim by Marcin Konik
!!!CharacterEncoding: utf-8
!!!RDF**kern: l=long note in original notation
!!!RDF**kern: i=editorial accidental
!!muse2ps: z14jc180F
